X: 1
T: None So Pretty 8x40R3C
T: or Fusilier's Dream 8x40R3C
P: Johnnie in Nether Mains [ABABB]
C: Niel Gow Collection, via Originally Ours
C: arr. T. Traub 8-21-2014
M: 4/4
L: 1/8
K: F
C|"F"F4 F2 Ac|"Bb"dcAc d2 f2|"F"c2 A2 A2 GF|"Bb"A2 G2 F2 D2|"F"F4 F2 Ac|"Bb"dcAc d2 e2|"F"f>g fgab|"C"a2 g2 "F"f3 c||
"F"f3 g fedc|"Bb"d2 c2 "F"A2 c2|"F"f3 g agfa|"Bb"d4 "C"c2 de|"Dm"fdgf "C"ecfe|"Bb"dcAc defg|"A"a3 A "Bb"BAGF|"C"A2 G2 "F"F3 c|]
